icon-themes/sifr_svg/cmd/lc_connectorcurvearrows.svg

<svg viewBox="0 0 24 24" xmlns="http://www.w3.org/2000/svg"><path d="m6 1c-.30945 0-.55232.0903-.75.28125l-4.25 3.71875c1.41667 1.073 2.83333 2.64574 4.25 3.71875.19768.1909502.44055.28125.75.28125h.5859375.4140625v-1c0-.25689-.12983-.52845-.3125-.71875l-1.5097656-1.28125h9.3300776l1 .0039062c1.388871.0045401 2.491679 1.1091694 2.492188 2.4980469.000509 1.3888776-1.101368 2.4963989-2.490234 2.5019529l-.509766.001953v-.005859h-5.515625v-.007812l-1 .003906c-2.4671759.008058-4.4834706 2.030858-4.484375 4.498047s2.0152525 4.492092 4.4824219 4.501953l.5175781.001953v.001953h9.822266l-1.509766 1.28125c-.18267.1903-.3125.46186-.3125.71875v1h.414062.585938c.30945 0 .55232-.0903.75-.28125 1.41667-1.07301 2.83333-2.64575 4.25-3.71875l-4.25-3.71875c-.19768-.19095-.44055-.28125-.75-.28125h-.585938-.414062v1c0 .25689.12983.52846.3125.71875l1.509766 1.28125h-9.3320316l-1-.003906c-1.3888665-.005555-2.4907435-1.111123-2.4902344-2.5.0005091-1.388878 1.1033173-2.4955 2.4921875-2.5l.5078125-.001953v.005859h5.517578v.007812l1-.003906c2.467168-.00987 4.483326-2.034764 4.482422-4.5019529s-2.017199-4.489989-4.484375-4.4980469l-.515625-.0019531v-.0019531h-9.8222656l1.5097656-1.28125c.18267-.19029.3125-.46186.3125-.71875v-1h-.4140625z" fill="#555753"/></svg>

<svg xmlns="http://www.w3.org/2000/svg" viewBox="0 0 24 24">
 <path
     style="fill:#555753"
     d="M 6 1 C 5.69055 1 5.44768 1.0903 5.25 1.28125 L 1 5 C 2.41667 6.073 3.83333 7.64574 5.25 8.71875 C 5.44768 8.9097002 5.69055 9 6 9 L 6.5859375 9 L 7 9 L 7 8 C 7 7.74311 6.87017 7.47155 6.6875 7.28125 L 5.1777344 6 L 14.507812 6 L 15.507812 6.0039062 C 16.896683 6.0084463 17.999491 7.1130756 18 8.5019531 C 18.000509 9.8908307 16.898632 10.998352 15.509766 11.003906 L 15 11.005859 L 15 11 L 9.484375 11 L 9.484375 10.992188 L 8.484375 10.996094 C 6.0171991 11.004152 4.0009044 13.026952 4 15.494141 C 3.9990956 17.96133 6.0152525 19.986233 8.4824219 19.996094 L 9 19.998047 L 9 20 L 18.822266 20 L 17.3125 21.28125 C 17.12983 21.47155 17 21.74311 17 22 L 17 23 L 17.414062 23 L 18 23 C 18.30945 23 18.55232 22.9097 18.75 22.71875 C 20.16667 21.64574 21.58333 20.073 23 19 L 18.75 15.28125 C 18.55232 15.0903 18.30945 15 18 15 L 17.414062 15 L 17 15 L 17 16 C 17 16.25689 17.12983 16.52846 17.3125 16.71875 L 18.822266 18 L 9.4902344 18 L 8.4902344 17.996094 C 7.1013679 17.990539 5.9994909 16.884971 6 15.496094 C 6.0005091 14.107216 7.1033173 13.000594 8.4921875 12.996094 L 9 12.994141 L 9 13 L 14.517578 13 L 14.517578 13.007812 L 15.517578 13.003906 C 17.984746 12.994036 20.000904 10.969142 20 8.5019531 C 19.999096 6.0347642 17.982801 4.0119641 15.515625 4.0039062 L 15 4.0019531 L 15 4 L 5.1777344 4 L 6.6875 2.71875 C 6.87017 2.52846 7 2.25689 7 2 L 7 1 L 6.5859375 1 L 6 1 z "
     />
 </svg>
